X:1956
T:Fight About The Fireside. HSJJ.095
O:england
M:4/4
L:1/8
Q:200
S:HSJ Jackson,Wyresdale,Lancs.1823
R:Reel
A:Lancashire
H:1823
K:D
d|AdFd Ee-ed|AdFd AdFd|AdAd Fedc|dA-AG F>ED:|
|:a|fdad feeg|fdaf bdad|gbag feeG|ABce fdd:|]


